packages/foundations/assets/icons/functional/images/communication/speech_bubble_exclamation_mark_28.svg

<svg width="28" height="28" viewBox="0 0 28 28" fill="none" xmlns="http://www.w3.org/2000/svg">
<g clip-path="url(#clip0_185_488)">
<path fill-rule="evenodd" clip-rule="evenodd" d="M23.625 2.1875C24.9922 2.1875 26.25 3.19918 26.25 4.8125V17.9375C26.25 19.3047 25.2676 20.5625 23.625 20.5625H8.61328C8.36719 20.5625 8.18931 20.6025 7.98438 20.8085L3.25391 25.5665C3.09032 25.7309 2.84375 25.8125 2.625 25.8125C2.21484 25.8125 1.75 25.485 1.75 24.9375V4.8125C1.75 3.44531 2.8471 2.1875 4.375 2.1875H23.625ZM23.625 3.9375H4.375C3.96484 3.9375 3.5 4.15625 3.5 4.8125V22.8321L6.72656 19.5781C7.25769 19.0425 7.81291 18.8125 8.61328 18.8125H23.625C24.0352 18.8125 24.5 18.5665 24.5 17.9375V4.8125C24.5 4.4023 24.1742 3.9375 23.625 3.9375ZM14 5.6875C14.4102 5.6875 14.875 5.97065 14.875 6.5898V11.8125C14.875 12.3046 14.4922 12.6875 14 12.6875C13.5625 12.6875 13.125 12.2773 13.125 11.8125V6.5898C13.125 6.0977 13.5078 5.6875 14 5.6875ZM14.0437 16.5047C14.7243 16.5047 15.2688 15.9662 15.2688 15.2932C15.2688 14.6201 14.7243 14.0547 14.0437 14.0547C13.3632 14.0547 12.8188 14.6201 12.8188 15.2932C12.8188 15.9662 13.3632 16.5047 14.0437 16.5047Z" fill="#1A1C1F"/>
</g>
<defs>
<clipPath id="clip0_185_488">
<rect width="28" height="28" fill="white"/>
</clipPath>
</defs>
</svg>

<svg xmlns="http://www.w3.org/2000/svg" width="28" height="28" fill="none"><g clip-path="url(#a)"><path fill="#1A1C1F" fill-rule="evenodd" d="M23.625 2.188c1.367 0 2.625 1.011 2.625 2.625v13.125c0 1.367-.982 2.625-2.625 2.625H8.613c-.246 0-.424.04-.629.245l-4.73 4.759a.9.9 0 0 1-.629.245c-.41 0-.875-.327-.875-.875V4.814c0-1.368 1.097-2.625 2.625-2.625zm0 1.75H4.375c-.41 0-.875.218-.875.874v18.02l3.227-3.254c.53-.535 1.086-.765 1.886-.765h15.012c.41 0 .875-.246.875-.875V4.813c0-.41-.326-.875-.875-.875M14 5.688c.41 0 .875.283.875.902v5.223a.864.864 0 0 1-.875.874c-.437 0-.875-.41-.875-.874V6.59c0-.492.383-.902.875-.902m.044 10.817c.68 0 1.225-.539 1.225-1.212s-.545-1.238-1.225-1.238-1.225.565-1.225 1.238.544 1.212 1.225 1.212" clip-rule="evenodd"/></g><defs><clipPath id="a"><path fill="#fff" d="M0 0h28v28H0z"/></clipPath></defs></svg>
